X:1
T:091 - Sangue de Jesus
T:Letra: Henry Maxwell Wright (1849-1931)
T:Música: Richard Slater
M:4/4
L:1/8
Q:1/4=115
K:Bb
V:1
F2 | "Bb"d3B "Eb"A2 G2 | "Bb"G=E FB d2 e3/d/ | "Cm"d4 c2 "F7"d3/c/ | c4 "Bb"B2 F2 | d3B "Eb"A2G2 | "Bb"G=E FB (d3e/)d/ | "Cm"d3c "F7"d3c | "Bb"B6 |]
w: 1.~O san-gue tão pre-cio-so de Je-sus Do pe-ca-do pu-ri-fi-ca; O san-gue de Je-sus me pu-ri-fi_ca; Mes-mo, mes-moa mim.
W: 
W:
W: O sangue tão precioso de Jesus
W: Do pecado purifica;
W: O sangue de Jesus me purifica;
W: Mesmo, mesmo a mim.
W:         
W:





%wordsfont Times-Roman 13.0
%vocalfont Times-Roman 13.0
